Numix-GalliumOS/16/status/smuxi-protocol-chat.svg

<?xml version="1.0" encoding="UTF-8" standalone="no"?>
<svg
   xmlns:dc="http://purl.org/dc/elements/1.1/"
   xmlns:cc="http://creativecommons.org/ns#"
   xmlns:rdf="http://www.w3.org/1999/02/22-rdf-syntax-ns#"
   xmlns:svg="http://www.w3.org/2000/svg"
   xmlns="http://www.w3.org/2000/svg"
   xmlns:sodipodi="http://sodipodi.sourceforge.net/DTD/sodipodi-0.dtd"
   xmlns:inkscape="http://www.inkscape.org/namespaces/inkscape"
   viewBox="0 0 16 16"
   width="16"
   height="16"
   id="svg13205"
   version="1.1"
   inkscape:version="0.91 r"
   sodipodi:docname="smuxi-protocol-chat.svg">
  <metadata
     id="metadata13213">
    <rdf:RDF>
      <cc:Work
         rdf:about="">
        <dc:format>image/svg+xml</dc:format>
        <dc:type
           rdf:resource="http://purl.org/dc/dcmitype/StillImage" />
      </cc:Work>
    </rdf:RDF>
  </metadata>
  <defs
     id="defs13211" />
  <sodipodi:namedview
     pagecolor="#ffffff"
     bordercolor="#666666"
     borderopacity="1"
     objecttolerance="10"
     gridtolerance="10"
     guidetolerance="10"
     inkscape:pageopacity="0"
     inkscape:pageshadow="2"
     inkscape:window-width="640"
     inkscape:window-height="480"
     id="namedview13209" />
  <path
     d="M 0.53750721,0 C 0.24473911,0.03102375 -0.00156689,0.30588419 7.5062558e-6,0.60045973 l 0,10.80832527 C 3.8906256e-5,11.723176 0.28585671,12.009195 0.60000721,12.009245 L 6.000005,12 6,14.999234 l 4,0 L 10.000003,12 15.4,12.009245 c 0.314151,-5e-5 0.599969,-0.286069 0.6,-0.60046 L 16,0.60045973 C 15.999969,0.28611906 15.714151,1.0007662e-4 15.4,0 L 0.60000721,0 z M 2.3506104,2.0015315 c 0.024925,-0.005 0.050074,-0.005 0.075,0 l 11.1474416,0 c 0.209433,5.01e-5 0.399979,0.190696 0.399999,0.4003065 l 0,7.2049132 c -2e-5,0.2096105 -0.190566,0.4002568 -0.399999,0.4003068 l -11.1474416,0 C 2.2161769,10.007008 2.0256319,9.8163617 2.0256109,9.6067512 l 0,-7.2049132 C 2.0223109,2.215045 2.1672499,2.0363582 2.3506104,2.0015315 z M 2,14 l 0,2 12,0 0,-2 z"
     fill="#abbeb9"
     color="#000000"
     id="path13207" />
</svg>

<svg xmlns="http://www.w3.org/2000/svg" viewBox="0 0 16 16">
 <path d="m 0.538 0 c -0.293 0.031 -0.539 0.306 -0.537 0.6 l 0 10.808 c 0 0.314 0.286 0.6 0.6 0.6 l 5.4 -0.009 0 2.999 l 4 0 l 0 -2.999 5.4 0.009 c 0.314 0 0.6 -0.286 0.6 -0.6 l 0 -10.808 c 0 -0.314 -0.286 -0.6 -0.6 -0.6 l -14.8 0 z m 1.813 2 c 0.025 -0.005 0.05 -0.005 0.075 0 l 11.147 0 c 0.209 0 0.4 0.191 0.4 0.4 l 0 7.205 c 0 0.21 -0.191 0.4 -0.4 0.4 l -11.147 0 c -0.209 0 -0.4 -0.191 -0.4 -0.4 l 0 -7.205 c -0.003 -0.187 0.142 -0.365 0.325 -0.4 z m -0.351 11.998 l 0 2 12 0 0 -2 z" style="fill:#abbeb9;color:#000"/>
</svg>
